;FLAVOR:Marlin
;TIME:2458
;Filament used: 1.19336m
;Layer height: 0.2
;MINX:88.829
;MINY:82.527
;MINZ:0.2
;MAXX:146.145
;MAXY:142.966
;MAXZ:7
;Generated with Cura_SteamEngine 5.4.0
M140 S60
M105
M190 S60
M104 S205
M105
M109 S205
M82 ;absolute extrusion mode
; Ender 3 Custom Start G-code
G92 E0 ; Reset Extruder
G28 ; Home all axes
G1 Z2.0 F3000 ; Move Z Axis up little to prevent scratching of Heat Bed
G1 X0.1 Y20 Z0.3 F5000.0 ; Move to start position
G1 X0.1 Y200.0 Z0.3 F1500.0 E15 ; Draw the first line
G1 X0.4 Y200.0 Z0.3 F5000.0 ; Move to side a little
G1 X0.4 Y20 Z0.3 F1500.0 E30 ; Draw the second line
G92 E0 ; Reset Extruder
G1 Z2.0 F3000 ; Move Z Axis up little to prevent scratching of Heat Bed
G1 X5 Y20 Z0.3 F5000.0 ; Move over to prevent blob squish
G92 E0
G92 E0
G1 F2700 E-5
;LAYER_COUNT:35
;LAYER:0
M107
G0 F6000 X105.276 Y88.248 Z0.2
;TYPE:SKIRT
G1 F2700 E0
G1 F1200 X105.801 Y87.647 E0.02654
G1 X106.057 Y87.376 E0.03894
G1 X106.697 Y86.752 E0.06867
G1 X107.009 Y86.473 E0.08259
G1 X107.628 Y85.957 E0.1094
G1 X107.968 Y85.695 E0.12367
G1 X108.669 Y85.2 E0.15221
G1 X109.015 Y84.977 E0.16591
G1 X109.674 Y84.582 E0.19146
G1 X110.016 Y84.394 E0.20444
G1 X110.844 Y83.984 E0.23517
G1 X111.215 Y83.82 E0.24866
G1 X111.878 Y83.552 E0.27245
G1 X112.274 Y83.409 E0.28645
G1 X113.128 Y83.138 E0.31625
G1 X113.527 Y83.029 E0.33001
G1 X114.292 Y82.852 E0.35612
G1 X114.702 Y82.774 E0.37
G1 X115.515 Y82.649 E0.39736
G1 X115.924 Y82.602 E0.41106
G1 X116.771 Y82.54 E0.4393
G1 X117.183 Y82.527 E0.45301
G1 X117.958 Y82.529 E0.47879
G1 X118.318 Y82.544 E0.49077
G1 X119.059 Y82.599 E0.51549
G1 X119.451 Y82.642 E0.5286
G1 X120.414 Y82.792 E0.56102
G1 X120.907 Y82.892 E0.57775
G1 X121.793 Y83.11 E0.6081
G1 X122.153 Y83.216 E0.62058
G1 X123.018 Y83.505 E0.65091
G1 X123.682 Y83.769 E0.67468
G1 X124.07 Y83.938 E0.68875
G1 X124.753 Y84.265 E0.71394
G1 X125.109 Y84.452 E0.72732
G1 X125.938 Y84.936 E0.75924
G1 X126.377 Y85.221 E0.77665
G1 X127.129 Y85.754 E0.80731
G1 X127.467 Y86.017 E0.82155
G1 X128.15 Y86.595 E0.85131
G1 X128.461 Y86.881 E0.86537
G1 X129.016 Y87.432 E0.89138
G1 X129.272 Y87.708 E0.9039
G1 X129.772 Y88.28 E0.92917
G1 X130.021 Y88.587 E0.94231
G1 X130.596 Y89.363 E0.97444
G1 X130.88 Y89.786 E0.99138
G1 X131.156 Y90.219 E1.00846
G1 X132.388 Y92.25 E1.08747
G1 X133.772 Y94.393 E1.17232
G1 X135.19 Y96.459 E1.25566
G1 X136.857 Y98.748 E1.34984
G1 X137.307 Y99.421 E1.37677
G1 X139.282 Y102.621 E1.50184
G1 X140.647 Y104.689 E1.58426
G1 X142.118 Y106.79 E1.66956
G1 X143.18 Y108.237 E1.72926
G1 X143.614 Y108.878 E1.75501
G1 X143.823 Y109.213 E1.76814
G1 X144.213 Y109.888 E1.79407
G1 X144.409 Y110.262 E1.80811
G1 X144.797 Y111.08 E1.83822
G1 X144.96 Y111.464 E1.8521
G1 X145.244 Y112.211 E1.87868
G1 X145.382 Y112.62 E1.89304
G1 X145.612 Y113.403 E1.92018
G1 X145.713 Y113.807 E1.93403
G1 X145.886 Y114.623 E1.96177
G1 X145.953 Y115.017 E1.97506
G1 X146.054 Y115.761 E2.00004
G1 X146.085 Y116.083 E2.0108
G1 X146.134 Y116.898 E2.03795
G1 X146.145 Y117.428 E2.05558
G1 X146.126 Y118.322 E2.08533
G1 X146.102 Y118.702 E2.09799
G1 X146.03 Y119.442 E2.12272
G1 X145.985 Y119.773 E2.13383
G1 X145.841 Y120.599 E2.16172
G1 X145.729 Y121.116 E2.17931
G1 X145.503 Y121.991 E2.20937
G1 X145.397 Y122.338 E2.22144
G1 X145.096 Y123.194 E2.25162
G1 X144.955 Y123.548 E2.26429
G1 X144.472 Y124.595 E2.30264
G1 X144.113 Y125.278 E2.3283
G1 X143.559 Y126.208 E2.36431
G1 X143.136 Y126.824 E2.38916
G1 X141.85 Y128.593 E2.4619
G1 X140.413 Y130.663 E2.54571
G1 X139.021 Y132.793 E2.63034
G1 X137.387 Y135.453 E2.73418
G1 X136.868 Y136.234 E2.76536
G1 X136.35 Y136.928 E2.79417
G1 X136.092 Y137.244 E2.80774
G1 X135.531 Y137.88 E2.83594
G1 X135.24 Y138.185 E2.84996
G1 X134.674 Y138.734 E2.87619
G1 X134.362 Y139.015 E2.89016
G1 X133.728 Y139.544 E2.91762
G1 X133.401 Y139.794 E2.93131
G1 X132.708 Y140.285 E2.95956
G1 X132.36 Y140.511 E2.97336
G1 X131.701 Y140.905 E2.9989
G1 X131.341 Y141.103 E3.01256
G1 X130.521 Y141.51 E3.04301
G1 X130.148 Y141.674 E3.05656
G1 X129.463 Y141.949 E3.08111
G1 X129.089 Y142.084 E3.09434
G1 X128.409 Y142.305 E3.11812
G1 X128.095 Y142.396 E3.12899
G1 X127.41 Y142.568 E3.15248
G1 X127.008 Y142.654 E3.16616
G1 X126.079 Y142.813 E3.1975
G1 X125.558 Y142.878 E3.21497
G1 X124.604 Y142.954 E3.2468
G1 X124.259 Y142.966 E3.25828
G1 X123.502 Y142.966 E3.28346
G1 X122.565 Y142.931 E3.31464
G1 X120.739 Y142.837 E3.37546
G1 X118.204 Y142.776 E3.4598
G1 X115.713 Y142.786 E3.54265
G1 X112.76 Y142.886 E3.64092
G1 X111.848 Y142.934 E3.6713
G1 X111.23 Y142.947 E3.69185
G1 X110.814 Y142.944 E3.70569
G1 X109.999 Y142.905 E3.73283
G1 X109.553 Y142.865 E3.74772
G1 X108.842 Y142.777 E3.77155
G1 X108.438 Y142.713 E3.78516
G1 X107.537 Y142.53 E3.81574
G1 X107.159 Y142.437 E3.82868
G1 X106.484 Y142.245 E3.85202
G1 X106.132 Y142.133 E3.86431
G1 X105.325 Y141.838 E3.89289
G1 X104.866 Y141.649 E3.9094
G1 X104.117 Y141.306 E3.9368
G1 X103.772 Y141.132 E3.94965
G1 X103.03 Y140.719 E3.97789
G1 X102.689 Y140.51 E3.9912
G1 X102.008 Y140.056 E4.01842
G1 X101.658 Y139.804 E4.03276
G1 X101.031 Y139.315 E4.05921
G1 X100.723 Y139.054 E4.07264
G1 X100.08 Y138.466 E4.10162
G1 X99.775 Y138.162 E4.11594
G1 X99.23 Y137.577 E4.14253
G1 X98.967 Y137.271 E4.15595
G1 X98.455 Y136.631 E4.18321
G1 X98.214 Y136.303 E4.19675
G1 X97.728 Y135.586 E4.22556
G1 X96.043 Y132.865 E4.33201
G1 X94.661 Y130.763 E4.41568
G1 X93.23 Y128.717 E4.49872
G1 X91.883 Y126.89 E4.57422
G1 X91.549 Y126.409 E4.59369
G1 X91.308 Y126.041 E4.60832
G1 X90.821 Y125.217 E4.64016
G1 X90.582 Y124.769 E4.65705
G1 X90.182 Y123.931 E4.68793
G1 X90.021 Y123.552 E4.70163
G1 X89.732 Y122.792 E4.72867
G1 X89.594 Y122.383 E4.74303
G1 X89.366 Y121.609 E4.76987
G1 X89.268 Y121.219 E4.78324
G1 X89.097 Y120.417 E4.81051
G1 X89.029 Y120.018 E4.82398
G1 X88.922 Y119.225 E4.85059
G1 X88.885 Y118.833 E4.86369
G1 X88.836 Y117.973 E4.89234
G1 X88.829 Y117.487 E4.9085
G1 X88.853 Y116.61 E4.93768
G1 X88.88 Y116.207 E4.95112
G1 X88.97 Y115.372 E4.97905
G1 X89.033 Y114.955 E4.99308
G1 X89.187 Y114.138 E5.02073
G1 X89.278 Y113.744 E5.03418
G1 X89.474 Y113.011 E5.05941
G1 X89.589 Y112.637 E5.07243
G1 X89.846 Y111.895 E5.09855
G1 X89.975 Y111.563 E5.11039
G1 X90.478 Y110.457 E5.1508
G1 X90.843 Y109.758 E5.17703
G1 X91.425 Y108.78 E5.21488
G1 X91.865 Y108.141 E5.24069
G1 X93.333 Y106.138 E5.32329
G1 X94.764 Y104.077 E5.40674
G1 X96.181 Y101.908 E5.49291
G1 X96.979 Y100.624 E5.54319
G1 X97.589 Y99.622 E5.58221
G1 X97.884 Y99.164 E5.60033
G1 X98.253 Y98.633 E5.62183
G1 X99.46 Y96.979 E5.68994
G1 X100.904 Y94.905 E5.77399
G1 X102.289 Y92.784 E5.85824
G1 X103.982 Y90.03 E5.96577
G1 X104.525 Y89.22 E5.9982
G1 X105.016 Y88.566 E6.0254
G1 X105.276 Y88.248 E6.03906
G0 F6000 X105.577 Y88.511
G1 F1200 X105.326 Y88.819 E6.05228
G1 X104.845 Y89.46 E6.07893
G1 X104.314 Y90.253 E6.11067
G1 X102.624 Y93.003 E6.21803
G1 X101.238 Y95.124 E6.3023
G1 X99.783 Y97.215 E6.38703
G1 X98.576 Y98.869 E6.45513
G1 X98.213 Y99.392 E6.47631
G1 X97.925 Y99.839 E6.49399
G1 X97.319 Y100.835 E6.53277
G1 X96.516 Y102.127 E6.58336
G1 X95.093 Y104.305 E6.6699
G1 X93.656 Y106.374 E6.75368
G1 X92.188 Y108.377 E6.83628
G1 X91.769 Y108.985 E6.86084
G1 X91.187 Y109.963 E6.89869
G1 X90.832 Y110.642 E6.92417
G1 X90.348 Y111.708 E6.96311
G1 X90.219 Y112.04 E6.97496
G1 X89.967 Y112.768 E7.00058
G1 X89.856 Y113.129 E7.01314
G1 X89.665 Y113.847 E7.03785
G1 X89.577 Y114.228 E7.05086
G1 X89.426 Y115.029 E7.07797
G1 X89.366 Y115.431 E7.09149
G1 X89.278 Y116.25 E7.11889
G1 X89.252 Y116.637 E7.13179
G1 X89.229 Y117.498 E7.16043
G1 X89.236 Y117.967 E7.17603
G1 X89.284 Y118.81 E7.20412
G1 X89.32 Y119.187 E7.21671
G1 X89.425 Y119.965 E7.24283
G1 X89.491 Y120.349 E7.25578
G1 X89.659 Y121.135 E7.28252
G1 X89.754 Y121.511 E7.29542
G1 X89.978 Y122.27 E7.32174
G1 X90.111 Y122.664 E7.33557
G1 X90.395 Y123.41 E7.36212
G1 X90.55 Y123.774 E7.37528
G1 X90.943 Y124.596 E7.40558
G1 X91.174 Y125.029 E7.4219
G1 X91.652 Y125.838 E7.45316
G1 X91.883 Y126.19 E7.46716
G1 X92.211 Y126.662 E7.48628
G1 X93.558 Y128.488 E7.56175
G1 X94.995 Y130.543 E7.64515
G1 X96.383 Y132.654 E7.72918
G1 X98.068 Y135.375 E7.83563
G1 X98.545 Y136.079 E7.86391
G1 X98.777 Y136.394 E7.87692
G1 X99.279 Y137.021 E7.90364
G1 X99.533 Y137.315 E7.91656
G1 X100.068 Y137.89 E7.94268
G1 X100.362 Y138.182 E7.95646
G1 X100.993 Y138.759 E7.9849
G1 X101.289 Y139.009 E7.99779
G1 X101.904 Y139.488 E8.02372
G1 X102.242 Y139.732 E8.03758
G1 X102.911 Y140.177 E8.06431
G1 X103.239 Y140.378 E8.0771
G1 X103.966 Y140.782 E8.10476
G1 X104.297 Y140.949 E8.11709
G1 X105.032 Y141.285 E8.14397
G1 X105.477 Y141.468 E8.15998
G1 X106.269 Y141.757 E8.18802
G1 X106.605 Y141.864 E8.19975
G1 X107.268 Y142.052 E8.22267
G1 X107.633 Y142.142 E8.23517
G1 X108.517 Y142.321 E8.26517
G1 X108.904 Y142.382 E8.2782
G1 X109.602 Y142.468 E8.30159
G1 X110.018 Y142.505 E8.31548
G1 X110.833 Y142.544 E8.34262
G1 X111.233 Y142.547 E8.35592
G1 X111.839 Y142.534 E8.37608
G1 X112.746 Y142.487 E8.40629
G1 X115.699 Y142.386 E8.50457
G1 X118.212 Y142.376 E8.58815
G1 X120.749 Y142.437 E8.67256
G1 X122.586 Y142.532 E8.73374
G1 X123.517 Y142.566 E8.76472
G1 X124.245 Y142.566 E8.78894
G1 X124.59 Y142.554 E8.80042
G1 X125.526 Y142.479 E8.83165
G1 X126.029 Y142.416 E8.84851
G1 X126.94 Y142.26 E8.87925
G1 X127.326 Y142.177 E8.89238
G1 X127.997 Y142.008 E8.9154
G1 X128.298 Y141.921 E8.92582
G1 X128.965 Y141.704 E8.94915
G1 X129.327 Y141.573 E8.96195
G1 X129.999 Y141.303 E8.98604
G1 X130.359 Y141.144 E8.99913
G1 X131.163 Y140.745 E9.02898
G1 X131.508 Y140.555 E9.04208
G1 X132.155 Y140.168 E9.06716
G1 X132.49 Y139.95 E9.08045
G1 X133.17 Y139.468 E9.10817
G1 X133.484 Y139.227 E9.12134
G1 X134.106 Y138.708 E9.14828
G1 X134.406 Y138.437 E9.16173
G1 X134.961 Y137.898 E9.18746
G1 X135.241 Y137.604 E9.20096
G1 X135.792 Y136.979 E9.22867
G1 X136.04 Y136.675 E9.24172
G1 X136.547 Y135.995 E9.26993
G1 X137.054 Y135.232 E9.3004
G1 X138.686 Y132.574 E9.40414
G1 X140.084 Y130.435 E9.48913
G1 X141.521 Y128.365 E9.57295
G1 X142.813 Y126.589 E9.64599
G1 X143.215 Y126.003 E9.66963
G1 X143.769 Y125.073 E9.70563
G1 X144.118 Y124.409 E9.73058
G1 X144.583 Y123.4 E9.76753
G1 X144.724 Y123.046 E9.78021
G1 X145.014 Y122.221 E9.80929
G1 X145.12 Y121.874 E9.82136
G1 X145.342 Y121.016 E9.85084
G1 X145.45 Y120.515 E9.86788
G1 X145.591 Y119.704 E9.89526
G1 X145.634 Y119.388 E9.90587
G1 X145.704 Y118.664 E9.93006
G1 X145.727 Y118.297 E9.94229
G1 X145.745 Y117.42 E9.97147
G1 X145.734 Y116.907 E9.98853
G1 X145.686 Y116.107 E10.01519
G1 X145.656 Y115.8 E10.02545
G1 X145.557 Y115.071 E10.04992
G1 X145.492 Y114.69 E10.06277
G1 X145.322 Y113.89 E10.08998
G1 X145.224 Y113.501 E10.10332
G1 X144.998 Y112.733 E10.12995
G1 X144.865 Y112.339 E10.14378
G1 X144.586 Y111.606 E10.16986
G1 X144.429 Y111.236 E10.18323
G1 X144.048 Y110.433 E10.21279
G1 X143.859 Y110.074 E10.22629
G1 X143.477 Y109.413 E10.25168
G1 X143.275 Y109.09 E10.26435
G1 X142.849 Y108.461 E10.28962
G1 X141.791 Y107.02 E10.34908
G1 X140.319 Y104.919 E10.4344
G1 X138.948 Y102.841 E10.5172
G1 X136.967 Y99.631 E10.64266
G1 X136.525 Y98.971 E10.66908
G1 X134.86 Y96.685 E10.76314
G1 X133.442 Y94.619 E10.84649
G1 X132.052 Y92.467 E10.93169
G1 X130.814 Y90.426 E11.01109
G1 X130.543 Y90.001 E11.02786
G1 X130.264 Y89.586 E11.04449
G1 X129.71 Y88.839 E11.07542
G1 X129.461 Y88.532 E11.08857
G1 X128.971 Y87.971 E11.11334
G1 X128.723 Y87.705 E11.12544
G1 X128.179 Y87.165 E11.15093
G1 X127.879 Y86.889 E11.16449
G1 X127.209 Y86.322 E11.19368
G1 X126.884 Y86.07 E11.20736
G1 X126.146 Y85.547 E11.23745
G1 X125.721 Y85.272 E11.25428
G1 X124.907 Y84.797 E11.28563
G1 X124.568 Y84.62 E11.29835
G1 X123.897 Y84.299 E11.32309
G1 X123.522 Y84.135 E11.3367
G1 X122.871 Y83.877 E11.35999
G1 X122.04 Y83.6 E11.38913
G1 X121.68 Y83.494 E11.40161
G1 X120.811 Y83.28 E11.43138
G1 X120.335 Y83.184 E11.44753
G1 X119.407 Y83.04 E11.47876
G1 X119.015 Y82.997 E11.49188
G1 X118.288 Y82.943 E11.51612
G1 X117.942 Y82.929 E11.52764
G1 X117.182 Y82.927 E11.55292
G1 X116.784 Y82.94 E11.56616
G1 X115.953 Y83.001 E11.59388
G1 X115.561 Y83.046 E11.607
G1 X114.763 Y83.169 E11.63386
G1 X114.367 Y83.245 E11.64727
G1 X113.618 Y83.419 E11.67284
G1 X113.233 Y83.524 E11.68611
G1 X112.395 Y83.79 E11.71536
G1 X112.015 Y83.928 E11.7288
G1 X111.365 Y84.191 E11.75213
G1 X111.006 Y84.35 E11.76518
G1 X110.209 Y84.745 E11.79477
G1 X109.867 Y84.933 E11.80775
G1 X109.22 Y85.32 E11.83283
G1 X108.886 Y85.536 E11.84605
G1 X108.199 Y86.022 E11.87404
G1 X107.872 Y86.274 E11.88778
G1 X107.265 Y86.78 E11.91406
G1 X106.964 Y87.05 E11.92751
G1 X106.348 Y87.651 E11.95613
G1 X106.092 Y87.922 E11.96853
G1 X105.577 Y88.511 E11.99455
G0 F6000 X105.878 Y88.774
G1 F1200 X106.383 Y88.197 E12.02006
G1 X106.639 Y87.926 E12.03246
G1 X107.232 Y87.347 E12.06002
G1 X107.521 Y87.087 E12.07295
G1 X108.116 Y86.591 E12.09872
G1 X108.43 Y86.349 E12.1119
G1 X109.104 Y85.872 E12.13936
G1 X109.426 Y85.663 E12.15213
G1 X110.06 Y85.283 E12.17672
G1 X110.387 Y85.103 E12.18913
G1 X111.168 Y84.716 E12.21812
G1 X111.515 Y84.562 E12.23075
G1 X112.152 Y84.304 E12.25361
G1 X112.516 Y84.171 E12.2665
G1 X113.338 Y83.91 E12.29518
G1 X113.709 Y83.809 E12.30797
G1 X114.443 Y83.638 E12.33304
G1 X114.824 Y83.564 E12.34595
G1 X115.607 Y83.443 E12.3723
G1 X115.982 Y83.4 E12.38485
G1 X116.798 Y83.34 E12.41207
G1 X117.181 Y83.327 E12.42481
G1 X117.926 Y83.329 E12.44959
G1 X118.258 Y83.342 E12.46064
G1 X118.971 Y83.395 E12.48442
G1 X119.363 Y83.438 E12.49754
G1 X120.256 Y83.576 E12.52759
G1 X120.715 Y83.668 E12.54316
G1 X121.568 Y83.878 E12.57238
G1 X121.914 Y83.979 E12.58437
G1 X122.724 Y84.249 E12.61277
G1 X123.362 Y84.502 E12.63559
G1 X123.725 Y84.66 E12.64876
G1 X124.383 Y84.974 E12.67301
G1 X124.706 Y85.143 E12.68513
G1 X125.504 Y85.608 E12.71585
G1 X125.915 Y85.873 E12.73212
G1 X126.639 Y86.386 E12.76163
G1 X126.951 Y86.628 E12.77476
G1 X127.608 Y87.183 E12.80337
G1 X127.897 Y87.449 E12.81643
G1 X128.431 Y87.979 E12.84146
G1 X128.67 Y88.234 E12.85308
G1 X129.15 Y88.784 E12.87736
G1 X129.399 Y89.091 E12.89051
G1 X129.932 Y89.81 E12.92028
G1 X130.206 Y90.216 E12.93657
G1 X130.472 Y90.633 E12.95302
G1 X131.716 Y92.684 E13.0328
G1 X133.112 Y94.846 E13.1184
G1 X134.531 Y96.911 E13.20173
G1 X136.193 Y99.194 E13.29566
G1 X136.627 Y99.841 E13.32157
G1 X138.614 Y103.061 E13.44742
G1 X139.991 Y105.149 E13.5306
G1 X141.464 Y107.25 E13.61595
G1 X142.518 Y108.686 E13.67519
G1 X142.936 Y109.302 E13.69995
G1 X143.131 Y109.613 E13.71216
G1 X143.505 Y110.261 E13.73705
G1 X143.687 Y110.605 E13.74999
G1 X144.061 Y111.392 E13.77897
G1 X144.212 Y111.748 E13.79183
G1 X144.486 Y112.467 E13.81743
G1 X144.614 Y112.846 E13.83073
G1 X144.836 Y113.599 E13.85684
G1 X144.931 Y113.973 E13.86968
G1 X145.098 Y114.758 E13.89637
G1 X145.161 Y115.125 E13.90875
G1 X145.258 Y115.84 E13.93275
G1 X145.287 Y116.131 E13.94248
G1 X145.334 Y116.916 E13.96864
G1 X145.345 Y117.412 E13.98514
G1 X145.328 Y118.272 E14.01375
G1 X145.306 Y118.625 E14.02551
G1 X145.237 Y119.335 E14.04924
G1 X145.197 Y119.636 E14.05934
G1 X145.059 Y120.431 E14.08617
G1 X144.955 Y120.916 E14.10267
G1 X144.737 Y121.757 E14.13157
G1 X144.631 Y122.104 E14.14363
G1 X144.352 Y122.898 E14.17163
G1 X144.211 Y123.252 E14.1843
G1 X143.764 Y124.223 E14.21985
G1 X143.425 Y124.868 E14.24409
G1 X142.871 Y125.798 E14.28009
G1 X142.49 Y126.354 E14.30251
G1 X141.192 Y128.137 E14.37586
G1 X139.755 Y130.207 E14.45968
G1 X138.351 Y132.355 E14.54503
G1 X136.721 Y135.011 E14.64867
G1 X136.226 Y135.756 E14.67842
G1 X135.729 Y136.423 E14.70609
G1 X135.492 Y136.715 E14.7186
G1 X134.952 Y137.328 E14.74577
G1 X134.682 Y137.611 E14.75878
